resources/svg/c-o.svg

<svg xmlns="http://www.w3.org/2000/svg" viewBox="0 0 15 15" fill="none"><path d="M10 5.5L9.93198 5.43198C9.33524 4.83524 8.52589 4.5 7.68198 4.5H7.5C5.84315 4.5 4.5 5.84315 4.5 7.5C4.5 9.15685 5.84315 10.5 7.5 10.5H7.68198C8.52589 10.5 9.33524 10.1648 9.93198 9.56802L10 9.5M1.5 10.5V4.5L7.5 1L13.5 4.5V10.5L7.5 14L1.5 10.5Z" stroke="black"/></svg>

<svg xmlns="http://www.w3.org/2000/svg" viewBox="0 0 15 15" fill="none"><path d="M10 5.5l-.068-.068a3.182 3.182 0 00-2.25-.932H7.5a3 3 0 000 6h.182c.844 0 1.653-.335 2.25-.932L10 9.5m-8.5 1v-6l6-3.5 6 3.5v6l-6 3.5-6-3.5z" stroke="currentColor"/></svg>
